X:418
T: BEKRAENZT MIT LAUB DEN LIEBEN VOLLEN BECHER
N: F0764A
O: Europa, Mitteleuropa, Deutschland
R: Geselligkeits -, Trink - Lied
M: 2/4
L: 1/16
K: Bb
F2 | B4B4 | B6
G2 | F2D2G2F2 | F3ED2
F2 | d2B2f2d2 | c6
B2 | A2F2c2c2 | F4z2
F2 | G4A4 | B6
c2 | d2B2e2d2 | d2c2z2
f2 | e2d2c2B2 | A2
G2F2B2 | c4A4 | B4z2

@@@ Tune index: 5849
